X:1
T:Title
%%score { ( 1 4 ) | ( 2 3 ) }
L:1/8
Q:1/4=150
M:6/4
K:Db
V:1 treble nm="Grand Piano"
V:4 treble 
V:2 bass 
V:3 bass 
V:1
 [FA]4 [FA]2 [EG]4 [EG]2 | F2 A2 [Fd]2 .[A,FA]6 | [A,DF]4 [F,A,D]2 [A,FA]4 [B,EG]2 | %3
w: William~F.~Sherwin * * *|||
 [DF]6 .[A,CE]6 | [A,EA]4 [A,EA]2 [A,CG]4 [A,EG]2 | [DF]2 A2 [Fd]2 .[A,FA]6 | %6
w: |||
 [A,DF]4 [F,A,D]2 [A,FA]4 [B,DG]2 | [G,CE]6 .[F,D]6 | [Fd]4 [Fd]2 c4 F2 | c2 d2 c2 .[DB]6 | %10
w: ||||
 [DB]4 [GB]2 [FA]4 [Fd]2 | .d6 z6 | d4 d2 c4 A2 | B2 c2 B2 .[FA]6 | B4 A2 F4 D2 | %15
w: |||||
 [A,DF]4 [CE]2[K:bass] [F,D]6 |] %16
w: |
V:2
 [D,A,]4 [D,A,]2 [C,A,]4 [C,A,]2 | .D6 z6 | D,4 D,2 D,4 G,2 | A,6 .A,,6 | C,4 C,2 A,,4 C,2 | %5
 z2 F2 [D,A,]2 .D,6 | D,4 D,2 D,4 G,,2 | A,,6 .D,6 | [B,,B,]4 [D,B,]2 [F,=A,E]4 [F,A,E]2 | %9
 [A,E]2 [B,F]2 [F,A,E]2 .[B,,B,]6 | [G,B,]4 [G,D]2 [D,D]4 [D,A,]2 | %11
 [E,E]4- [E,DE]2[K:treble] .[A,CE]6 | [B,DF]4 [B,DF]2 [A,EG]4[K:bass] [F,D]2 | %13
 [G,DG]4 [G,DG]2 .[D,D]6 | [G,D]4 [F,A,D]2 [D,A,D]4 [B,,=G,]2 | z4 G,2 D,6 |] %16
V:3
 x12 | [D,A,]2- [D,A,F]2 [D,A,]2 .D,6 | x12 | x12 | x12 | .D,6 z6 | x12 | x12 | x12 | .F,6 z6 | %10
 x12 | .=G,6[K:treble] z6 | x10[K:bass] x2 | x12 | x12 | A,,6 z6 |] %16
V:4
 x12 | x12 | x12 | x12 | x12 | .A,6 z6 | x12 | x12 | x12 | x12 | x12 | z2 B,2 =G2 .A6 | x12 | x12 | %14
 x12 | x6[K:bass] x6 |] %16

